X:1
T:Nonnentanz
C:traditionell
Z:abc transcription Simon Wascher
M:2/4
L:1/8
K:G
d/c/ |\
Bd/c/ Bd/c/ | BB Bd/c/ | Bd/c/ Bc/B/ | AA Ad/c/ |
Bd/c/ Bd/c/ | BB Bd/c/ | Bc/B/ AB/A/ | GB G2 :|
|:\
d2 e>d | cB A2 | GA/B/ cB | A4 |
d2 e>d | cB A2 | GA/B/ cB | Ad G2 :|
|:\
GA/B/ cB | A4 | d>e dc | BA BG |
GA/B/ cB | A4 | d>e dc | BA G2 :|
%%wordsfont Times-Italic 11pt
W:aus Simon Waschers TradArchiv
